X:1
T:Title
%%score ( 1 2 ) { ( 3 6 ) | ( 4 5 ) }
L:1/8
Q:1/4=87
M:4/4
K:D
V:1 treble nm="Grand Piano, Soprano"
V:2 treble 
V:3 bass nm="Choir Pad, My Savior Face to Face"
V:6 bass 
V:4 bass 
V:5 bass 
V:1
 [DF][EG][FA][Fd] [Fd][Fd][Fd][Fd] | [FA][DF][DG][GB] [GB][GB] [GB]2 | %2
w: By~William~James~Kirkpatrick * * * * * * *||
 [EG][DF][CE][CE] [CE][DF][EG][FA] | [Gc][GB] [FA]4 [DF]2 | [DF][EG][FA][Fd] [Fd][Fd][Fd][Fd] | %5
w: |||
 [FA][DF][DG][GB] [GB][GB] [GB]2- | [GB][GB][FA][FA] [Gc][FB][EB][EA] | z2 D6 | %8
w: |||
 [DF][EG][FA][FA] [FA][FA][FA][Fd] | [FA][EG] [FA]6 | [FA][FA][GB][GB] [GB][GB][GB][Ge] | %11
w: |||
 [Ge][Gd] [Gc]6 | [GA][GA][Fd][Fd] [Fd][Fd][Fd][Fd] | [FA][DF][DG][GB] [GB][GB] [GB]2- | %14
w: |||
 [GB][GB][FA][FA] [Gc][FB][EB][EA] | z2[K:bass] D6- | D4 z4 |] %17
w: |||
V:2
 x8 | x8 | x8 | x8 | x8 | x8 | x8 | [CG][CE] z A, B,B, A,2 | x8 | x8 | x8 | x8 | x8 | x8 | x8 | %15
 [CG][CE][K:bass] z A, B,B, A,2- | A,4 z4 |] %17
V:3
 A,A,DA, A,A,A,A, | =CCB,D DD D2 | A,A,A,A, A,A,A,A, | A,C D4 A,2 | A,A,DA, A,A,A,A, | %5
 =CCB,D DD D2- | DDDD EDCC | A,G, z F, G,G, F,2 | A,A,[K:treble]DD DDD[K:bass]A, | %9
 A,A,DD[K:treble] DD D2 | DDDD DDDB, | B,EEE EE E2 | CCD[K:bass]A, A,A,A,A, | =CCB,D DD D2- | %14
 DDDD EDCC | A,G, z F, G,G, F,2- | F,4 z4 |] %17
V:4
 D,D,D,D, D,D,D,D, | D,D,G,,G,, G,,G,, G,,2 | A,,A,,A,,A,, A,,A,,A,,A,, | A,,A,, .D,2 F,A, D,2 | %4
 D,D,D,D, D,D,D,D, | D,D,G,,G,, G,,G,, G,,2- | G,,G,,A,,A,, A,,A,,A,,A,, | A,,A,, z2 z4 | %8
 D,D,D,D, D,D,D,D, | D,D,D,D, F,A, D,2 | D,D,G,G, G,G,G,G, | G,G,A,A, A,A, A,2 | %12
 A,A,D,D, D,D,D,D, | D,D,G,,G,, G,,G,, G,,2- | G,,G,,A,,A,, A,,A,,A,,A,, | A,,A,, z2 z4 | z8 |] %17
V:5
 x8 | x8 | x8 | z2 z D,- D,2 z2 | x8 | x8 | x8 | x8 | x8 | x8 | x8 | x8 | x8 | x8 | x8 | x8 | x8 |] %17
V:6
 x8 | x8 | x8 | x8 | x8 | x8 | x8 | z2 D,6 | x2[K:treble] x5[K:bass] x | x4[K:treble] x4 | x8 | %11
 x8 | x3[K:bass] x5 | x8 | x8 | z2 D,6- | D,4 z4 |] %17

